X:1
B:Patterson, D W, 1979, The Shaker Spiritual, Princeton University Press, New Jersey
Z:Daniel W Patterson
F:http://www.folkinfo.org/songs
T:Shaker Turning Shuffle Tune No. 5
Q:1/4=96     %Tempo
M:3/4     %Meter
L:1/8     %
K:C
(C4 |:C)D |E2 C2 c2 |A4 (AG) | E2 D2 {E}G2 |E4 (CD)|
E2 C2 c2 |A4 (AG) | E2 E2 (ED) |C4 :|
|:(CD) |E2 E2 E2 |D2 E2 (CD) |E2 E2 (ED)|
C4 (CD) |E2 C2 c2 | A4 (AG) |E2 E2 (ED) |C4 :|
W:
